X:702
T:Moggy Lawther
S:R. Bremner, The Delightful Pocket Companion for the German Flute
A:opposite Somerset House in the Strand, London
B:NLS Glen.186
N:vol 1 part 1 p.24
M:C|
L:1/16
Q:1/2=60
K:D
A2|:d3ed3f    d3ed3f   |e3fe3d    c4 e4| f2d2d2d2          d3ed2f2     |a2b2a2g2  f4  a4 |
    g3ag2b2   f3gf2a2  |e3f  gfed c4 e4|(dc)(BA) (BA)(GF) (GF)(ED) E2g2|fgag fgef d4  D4:|
    fga2 d2g2 fga2 d2g2|e3f  gfed c4 e4| fga2     d2g2     fga2    d2g2|a3b  abag f4  a4 |
    g3ag3b    f3gf3a   |e3f  gfed c4 e4|(dc)(BA) (BA)(GF) (GF)(ED) E2g2|fga2 e2f2 d4  D4:|
    afd2 afd2 afdf dfaf|e3f  gfed c4 e4| afdf     dfaf     dfaf    afdf|agab abag f4  a4 |
    gfga gbag fefg fagf|edef gfed c4 e4|(dc)(BA) (BA)(GF) (GF)(ED) E2g2|fgag fgef d4  D4:|
    D3ED3g    fga2 d2f2|e3f  gfed c4 e4| D3ED3g            fga2    d2f2|a3b  abag f4  a4 |
    gfga gbag fefg fagf|edef gfed c4 e4|(dc)(BA) (BA)(GF) (GF)(ED) E2g2|fga2 e2f2 d4  D4:|
    DFA2 dfa2 DFA2 dfa2|e3f  gfed c4 e4| afdf     dfaf     dfaf    afdf|agab abag f4  a4 |
    gBGB GBgB ecAc Acec|E3f  gfed c4 e4|(dc)(BA) (BA)(GF) (GF)(ED) E2g2|fga2 e2f2 d4  D4:|
    fdAd fdAg faAg faAf|e3f  gfed c4 e4| DFAd     DFAg     faAg    faAf|agab abag f4  a4 |
    gBGB GBgB ecAc Acec|E3f  gfed c4 e4|(dc)(BA) (BA)(GF) (GF)(ED) E3g |f2g2f2e2  d4 HD4:|

